X:0
T:Lamma Bada Yatathanna
M:10/8
L:1/16
Q:1/4=60
K:GMin % actually Nahawand
 D2| G4 AB cBBA AGG^F G4  \
 D2| G4 AB cBBA AGG^F G4
 AB| c4 d2 B3A  AGG^F G4  \
 A2|^F4 G2 E3D  EDEF  D4
 ed| c4 d2 B3A  AGG^F G4:|\
 D2| G4 AB cBBA AGG^F G4
 D2| G4 AB cBBA AGG^F G4  \
 B2| B4 B2 B4   cBAc  B4
 Bc| d4 c2 dccB BAGB  A4  \
=F2| G4 A2 B4   cBAc  B4
 AB| c4 d2 B3A  AGG^F G4  \
 A2|^F4 G2 E3D  EDEF  D4
 ed| c4 d2 B3A  AGG^F G4  \
 AB| c4 d2 B3A  AGG^F G4|]
